;FLAVOR:Marlin
;TIME:4272
;Filament used: 24.0897m
;Layer height: 20
;MINX:185
;MINY:345
;MINZ:20
;MAXX:465
;MAXY:355
;MAXZ:860
;Generated with Cura_SteamEngine 4.5.0
M104 S210
M105
M109 S210
M82 ;absolute extrusion mode
G28 ;Home
G0 Z20.0 F500
G92 E0 ;Reset Extruder
G1 E100 F2000
G92 E0
G92 E0
;LAYER_COUNT:43
;LAYER:0
M107
G1 F600 Z40
;MESH:30mm wall.stl
G0 F3000 X185 Y355 Z40
;TYPE:WALL-OUTER
G1 F600 Z20
G1 F360 X185 Y345 E12.7324
G1 X465 Y345 E369.23947
G92 E0
G1 X465 Y355 E12.7324
G1 X185 Y355 E190.98593
G0 F3000 X185 Y345
;MESH:NONMESH
G0 F600 X185 Y345 Z40
G0 F3000 X185.07 Y345.07
G0 X185.07 Y354.93
G0 X185 Y355
;TIME_ELAPSED:109.827365
;LAYER:1
;TYPE:WALL-OUTER
;MESH:30mm wall.stl
G92 E0
G1 F360 X185 Y345 E12.7324
G1 X465 Y345 E369.23947
G92 E0
G1 X465 Y355 E12.7324
G1 X185 Y355 E190.98593
G0 F3000 X185 Y345
;MESH:NONMESH
G0 F600 X185 Y345 Z60
G0 F3000 X185.07 Y345.07
G0 X185.07 Y354.93
G0 X185 Y355
;TIME_ELAPSED:208.999814
;LAYER:2
;TYPE:WALL-OUTER
;MESH:30mm wall.stl
G92 E0
G1 F360 X185 Y345 E12.7324
G1 X465 Y345 E369.23947
G92 E0
G1 X465 Y355 E12.7324
G1 X185 Y355 E190.98593
G0 F3000 X185 Y345
;MESH:NONMESH
G0 F600 X185 Y345 Z80
G0 F3000 X185.07 Y345.07
G0 X185.07 Y354.93
G0 X185 Y355
;TIME_ELAPSED:308.172263
;LAYER:3
;TYPE:WALL-OUTER
;MESH:30mm wall.stl
G92 E0
G1 F360 X185 Y345 E12.7324
G1 X465 Y345 E369.23947
G92 E0
G1 X465 Y355 E12.7324
G1 X185 Y355 E190.98593
G0 F3000 X185 Y345
;MESH:NONMESH
G0 F600 X185 Y345 Z100
G0 F3000 X185.07 Y345.07
G0 X185.07 Y354.93
G0 X185 Y355
;TIME_ELAPSED:407.344712
;LAYER:4
;TYPE:WALL-OUTER
;MESH:30mm wall.stl
G92 E0
G1 F360 X185 Y345 E12.7324
G1 X465 Y345 E369.23947
G92 E0
G1 X465 Y355 E12.7324
G1 X185 Y355 E190.98593
G0 F3000 X185 Y345
;MESH:NONMESH
G0 F600 X185 Y345 Z120
G0 F3000 X185.07 Y345.07
G0 X185.07 Y354.93
G0 X185 Y355
;TIME_ELAPSED:506.517161
;LAYER:5
;TYPE:WALL-OUTER
;MESH:30mm wall.stl
G92 E0
G1 F360 X185 Y345 E12.7324
G1 X465 Y345 E369.23947
G92 E0
G1 X465 Y355 E12.7324
G1 X185 Y355 E190.98593
G0 F3000 X185 Y345
;MESH:NONMESH
G0 F600 X185 Y345 Z140
G0 F3000 X185.07 Y345.07
G0 X185.07 Y354.93
G0 X185 Y355
;TIME_ELAPSED:605.689610
;LAYER:6
;TYPE:WALL-OUTER
;MESH:30mm wall.stl
G92 E0
G1 F360 X185 Y345 E12.7324
G1 X465 Y345 E369.23947
G92 E0
G1 X465 Y355 E12.7324
G1 X185 Y355 E190.98593
G0 F3000 X185 Y345
;MESH:NONMESH
G0 F600 X185 Y345 Z160
G0 F3000 X185.07 Y345.07
G0 X185.07 Y354.93
G0 X185 Y355
;TIME_ELAPSED:704.862059
;LAYER:7
;TYPE:WALL-OUTER
;MESH:30mm wall.stl
G92 E0
G1 F360 X185 Y345 E12.7324
G1 X465 Y345 E369.23947
G92 E0
G1 X465 Y355 E12.7324
G1 X185 Y355 E190.98593
G0 F3000 X185 Y345
;MESH:NONMESH
G0 F600 X185 Y345 Z180
G0 F3000 X185.07 Y345.07
G0 X185.07 Y354.93
G0 X185 Y355
;TIME_ELAPSED:804.034508
;LAYER:8
;TYPE:WALL-OUTER
;MESH:30mm wall.stl
G92 E0
G1 F360 X185 Y345 E12.7324
G1 X465 Y345 E369.23947
G92 E0
G1 X465 Y355 E12.7324
G1 X185 Y355 E190.98593
G0 F3000 X185 Y345
;MESH:NONMESH
G0 F600 X185 Y345 Z200
G0 F3000 X185.07 Y345.07
G0 X185.07 Y354.93
G0 X185 Y355
;TIME_ELAPSED:903.206957
;LAYER:9
;TYPE:WALL-OUTER
;MESH:30mm wall.stl
G92 E0
G1 F360 X185 Y345 E12.7324
G1 X465 Y345 E369.23947
G92 E0
G1 X465 Y355 E12.7324
G1 X185 Y355 E190.98593
G0 F3000 X185 Y345
;MESH:NONMESH
G0 F600 X185 Y345 Z220
G0 F3000 X185.07 Y345.07
G0 X185.07 Y354.93
G0 X185 Y355
;TIME_ELAPSED:1002.379406
;LAYER:10
;TYPE:WALL-OUTER
;MESH:30mm wall.stl
G92 E0
G1 F360 X185 Y345 E12.7324
G1 X465 Y345 E369.23947
G92 E0
G1 X465 Y355 E12.7324
G1 X185 Y355 E190.98593
G0 F3000 X185 Y345
;MESH:NONMESH
G0 F600 X185 Y345 Z240
G0 F3000 X185.07 Y345.07
G0 X185.07 Y354.93
G0 X185 Y355
;TIME_ELAPSED:1101.551855
;LAYER:11
;TYPE:WALL-OUTER
;MESH:30mm wall.stl
G92 E0
G1 F360 X185 Y345 E12.7324
G1 X465 Y345 E369.23947
G92 E0
G1 X465 Y355 E12.7324
G1 X185 Y355 E190.98593
G0 F3000 X185 Y345
;MESH:NONMESH
G0 F600 X185 Y345 Z260
G0 F3000 X185.07 Y345.07
G0 X185.07 Y354.93
G0 X185 Y355
;TIME_ELAPSED:1200.724304
;LAYER:12
;TYPE:WALL-OUTER
;MESH:30mm wall.stl
G92 E0
G1 F360 X185 Y345 E12.7324
G1 X465 Y345 E369.23947
G92 E0
G1 X465 Y355 E12.7324
G1 X185 Y355 E190.98593
G0 F3000 X185 Y345
;MESH:NONMESH
G0 F600 X185 Y345 Z280
G0 F3000 X185.07 Y345.07
G0 X185.07 Y354.93
G0 X185 Y355
;TIME_ELAPSED:1299.896753
;LAYER:13
;TYPE:WALL-OUTER
;MESH:30mm wall.stl
G92 E0
G1 F360 X185 Y345 E12.7324
G1 X465 Y345 E369.23947
G92 E0
G1 X465 Y355 E12.7324
G1 X185 Y355 E190.98593
G0 F3000 X185 Y345
;MESH:NONMESH
G0 F600 X185 Y345 Z300
G0 F3000 X185.07 Y345.07
G0 X185.07 Y354.93
G0 X185 Y355
;TIME_ELAPSED:1399.069202
;LAYER:14
;TYPE:WALL-OUTER
;MESH:30mm wall.stl
G92 E0
G1 F360 X185 Y345 E12.7324
G1 X465 Y345 E369.23947
G92 E0
G1 X465 Y355 E12.7324
G1 X185 Y355 E190.98593
G0 F3000 X185 Y345
;MESH:NONMESH
G0 F600 X185 Y345 Z320
G0 F3000 X185.07 Y345.07
G0 X185.07 Y354.93
G0 X185 Y355
;TIME_ELAPSED:1498.241651
;LAYER:15
;TYPE:WALL-OUTER
;MESH:30mm wall.stl
G92 E0
G1 F360 X185 Y345 E12.7324
G1 X465 Y345 E369.23947
G92 E0
G1 X465 Y355 E12.7324
G1 X185 Y355 E190.98593
G0 F3000 X185 Y345
;MESH:NONMESH
G0 F600 X185 Y345 Z340
G0 F3000 X185.07 Y345.07
G0 X185.07 Y354.93
G0 X185 Y355
;TIME_ELAPSED:1597.414099
;LAYER:16
;TYPE:WALL-OUTER
;MESH:30mm wall.stl
G92 E0
G1 F360 X185 Y345 E12.7324
G1 X465 Y345 E369.23947
G92 E0
G1 X465 Y355 E12.7324
G1 X185 Y355 E190.98593
G0 F3000 X185 Y345
;MESH:NONMESH
G0 F600 X185 Y345 Z360
G0 F3000 X185.07 Y345.07
G0 X185.07 Y354.93
G0 X185 Y355
;TIME_ELAPSED:1696.586548
;LAYER:17
;TYPE:WALL-OUTER
;MESH:30mm wall.stl
G92 E0
G1 F360 X185 Y345 E12.7324
G1 X465 Y345 E369.23947
G92 E0
G1 X465 Y355 E12.7324
G1 X185 Y355 E190.98593
G0 F3000 X185 Y345
;MESH:NONMESH
G0 F600 X185 Y345 Z380
G0 F3000 X185.07 Y345.07
G0 X185.07 Y354.93
G0 X185 Y355
;TIME_ELAPSED:1795.758997
;LAYER:18
;TYPE:WALL-OUTER
;MESH:30mm wall.stl
G92 E0
G1 F360 X185 Y345 E12.7324
G1 X465 Y345 E369.23947
G92 E0
G1 X465 Y355 E12.7324
G1 X185 Y355 E190.98593
G0 F3000 X185 Y345
;MESH:NONMESH
G0 F600 X185 Y345 Z400
G0 F3000 X185.07 Y345.07
G0 X185.07 Y354.93
G0 X185 Y355
;TIME_ELAPSED:1894.931446
;LAYER:19
;TYPE:WALL-OUTER
;MESH:30mm wall.stl
G92 E0
G1 F360 X185 Y345 E12.7324
G1 X465 Y345 E369.23947
G92 E0
G1 X465 Y355 E12.7324
G1 X185 Y355 E190.98593
G0 F3000 X185 Y345
;MESH:NONMESH
G0 F600 X185 Y345 Z420
G0 F3000 X185.07 Y345.07
G0 X185.07 Y354.93
G0 X185 Y355
;TIME_ELAPSED:1994.103895
;LAYER:20
;TYPE:WALL-OUTER
;MESH:30mm wall.stl
G92 E0
G1 F360 X185 Y345 E12.7324
G1 X465 Y345 E369.23947
G92 E0
G1 X465 Y355 E12.7324
G1 X185 Y355 E190.98593
G0 F3000 X185 Y345
;MESH:NONMESH
G0 F600 X185 Y345 Z440
G0 F3000 X185.07 Y345.07
G0 X185.07 Y354.93
G0 X185 Y355
;TIME_ELAPSED:2093.276344
;LAYER:21
;TYPE:WALL-OUTER
;MESH:30mm wall.stl
G92 E0
G1 F360 X185 Y345 E12.7324
G1 X465 Y345 E369.23947
G92 E0
G1 X465 Y355 E12.7324
G1 X185 Y355 E190.98593
G0 F3000 X185 Y345
;MESH:NONMESH
G0 F600 X185 Y345 Z460
G0 F3000 X185.07 Y345.07
G0 X185.07 Y354.93
G0 X185 Y355
;TIME_ELAPSED:2192.448793
;LAYER:22
;TYPE:WALL-OUTER
;MESH:30mm wall.stl
G92 E0
G1 F360 X185 Y345 E12.7324
G1 X465 Y345 E369.23947
G92 E0
G1 X465 Y355 E12.7324
G1 X185 Y355 E190.98593
G0 F3000 X185 Y345
;MESH:NONMESH
G0 F600 X185 Y345 Z480
G0 F3000 X185.07 Y345.07
G0 X185.07 Y354.93
G0 X185 Y355
;TIME_ELAPSED:2291.621242
;LAYER:23
;TYPE:WALL-OUTER
;MESH:30mm wall.stl
G92 E0
G1 F360 X185 Y345 E12.7324
G1 X465 Y345 E369.23947
G92 E0
G1 X465 Y355 E12.7324
G1 X185 Y355 E190.98593
G0 F3000 X185 Y345
;MESH:NONMESH
G0 F600 X185 Y345 Z500
G0 F3000 X185.07 Y345.07
G0 X185.07 Y354.93
G0 X185 Y355
;TIME_ELAPSED:2390.793691
;LAYER:24
;TYPE:WALL-OUTER
;MESH:30mm wall.stl
G92 E0
G1 F360 X185 Y345 E12.7324
G1 X465 Y345 E369.23947
G92 E0
G1 X465 Y355 E12.7324
G1 X185 Y355 E190.98593
G0 F3000 X185 Y345
;MESH:NONMESH
G0 F600 X185 Y345 Z520
G0 F3000 X185.07 Y345.07
G0 X185.07 Y354.93
G0 X185 Y355
;TIME_ELAPSED:2489.966140
;LAYER:25
;TYPE:WALL-OUTER
;MESH:30mm wall.stl
G92 E0
G1 F360 X185 Y345 E12.7324
G1 X465 Y345 E369.23947
G92 E0
G1 X465 Y355 E12.7324
G1 X185 Y355 E190.98593
G0 F3000 X185 Y345
;MESH:NONMESH
G0 F600 X185 Y345 Z540
G0 F3000 X185.07 Y345.07
G0 X185.07 Y354.93
G0 X185 Y355
;TIME_ELAPSED:2589.138589
;LAYER:26
;TYPE:WALL-OUTER
;MESH:30mm wall.stl
G92 E0
G1 F360 X185 Y345 E12.7324
G1 X465 Y345 E369.23947
G92 E0
G1 X465 Y355 E12.7324
G1 X185 Y355 E190.98593
G0 F3000 X185 Y345
;MESH:NONMESH
G0 F600 X185 Y345 Z560
G0 F3000 X185.07 Y345.07
G0 X185.07 Y354.93
G0 X185 Y355
;TIME_ELAPSED:2688.311038
;LAYER:27
;TYPE:WALL-OUTER
;MESH:30mm wall.stl
G92 E0
G1 F360 X185 Y345 E12.7324
G1 X465 Y345 E369.23947
G92 E0
G1 X465 Y355 E12.7324
G1 X185 Y355 E190.98593
G0 F3000 X185 Y345
;MESH:NONMESH
G0 F600 X185 Y345 Z580
G0 F3000 X185.07 Y345.07
G0 X185.07 Y354.93
G0 X185 Y355
;TIME_ELAPSED:2787.483487
;LAYER:28
;TYPE:WALL-OUTER
;MESH:30mm wall.stl
G92 E0
G1 F360 X185 Y345 E12.7324
G1 X465 Y345 E369.23947
G92 E0
G1 X465 Y355 E12.7324
G1 X185 Y355 E190.98593
G0 F3000 X185 Y345
;MESH:NONMESH
G0 F600 X185 Y345 Z600
G0 F3000 X185.07 Y345.07
G0 X185.07 Y354.93
G0 X185 Y355
;TIME_ELAPSED:2886.655936
;LAYER:29
;TYPE:WALL-OUTER
;MESH:30mm wall.stl
G92 E0
G1 F360 X185 Y345 E12.7324
G1 X465 Y345 E369.23947
G92 E0
G1 X465 Y355 E12.7324
G1 X185 Y355 E190.98593
G0 F3000 X185 Y345
;MESH:NONMESH
G0 F600 X185 Y345 Z620
G0 F3000 X185.07 Y345.07
G0 X185.07 Y354.93
G0 X185 Y355
;TIME_ELAPSED:2985.828385
;LAYER:30
;TYPE:WALL-OUTER
;MESH:30mm wall.stl
G92 E0
G1 F360 X185 Y345 E12.7324
G1 X465 Y345 E369.23947
G92 E0
G1 X465 Y355 E12.7324
G1 X185 Y355 E190.98593
G0 F3000 X185 Y345
;MESH:NONMESH
G0 F600 X185 Y345 Z640
G0 F3000 X185.07 Y345.07
G0 X185.07 Y354.93
G0 X185 Y355
;TIME_ELAPSED:3085.000834
;LAYER:31
;TYPE:WALL-OUTER
;MESH:30mm wall.stl
G92 E0
G1 F360 X185 Y345 E12.7324
G1 X465 Y345 E369.23947
G92 E0
G1 X465 Y355 E12.7324
G1 X185 Y355 E190.98593
G0 F3000 X185 Y345
;MESH:NONMESH
G0 F600 X185 Y345 Z660
G0 F3000 X185.07 Y345.07
G0 X185.07 Y354.93
G0 X185 Y355
;TIME_ELAPSED:3184.173283
;LAYER:32
;TYPE:WALL-OUTER
;MESH:30mm wall.stl
G92 E0
G1 F360 X185 Y345 E12.7324
G1 X465 Y345 E369.23947
G92 E0
G1 X465 Y355 E12.7324
G1 X185 Y355 E190.98593
G0 F3000 X185 Y345
;MESH:NONMESH
G0 F600 X185 Y345 Z680
G0 F3000 X185.07 Y345.07
G0 X185.07 Y354.93
G0 X185 Y355
;TIME_ELAPSED:3283.345732
;LAYER:33
;TYPE:WALL-OUTER
;MESH:30mm wall.stl
G92 E0
G1 F360 X185 Y345 E12.7324
G1 X465 Y345 E369.23947
G92 E0
G1 X465 Y355 E12.7324
G1 X185 Y355 E190.98593
G0 F3000 X185 Y345
;MESH:NONMESH
G0 F600 X185 Y345 Z700
G0 F3000 X185.07 Y345.07
G0 X185.07 Y354.93
G0 X185 Y355
;TIME_ELAPSED:3382.518181
;LAYER:34
;TYPE:WALL-OUTER
;MESH:30mm wall.stl
G92 E0
G1 F360 X185 Y345 E12.7324
G1 X465 Y345 E369.23947
G92 E0
G1 X465 Y355 E12.7324
G1 X185 Y355 E190.98593
G0 F3000 X185 Y345
;MESH:NONMESH
G0 F600 X185 Y345 Z720
G0 F3000 X185.07 Y345.07
G0 X185.07 Y354.93
G0 X185 Y355
;TIME_ELAPSED:3481.690630
;LAYER:35
;TYPE:WALL-OUTER
;MESH:30mm wall.stl
G92 E0
G1 F360 X185 Y345 E12.7324
G1 X465 Y345 E369.23947
G92 E0
G1 X465 Y355 E12.7324
G1 X185 Y355 E190.98593
G0 F3000 X185 Y345
;MESH:NONMESH
G0 F600 X185 Y345 Z740
G0 F3000 X185.07 Y345.07
G0 X185.07 Y354.93
G0 X185 Y355
;TIME_ELAPSED:3580.863079
;LAYER:36
;TYPE:WALL-OUTER
;MESH:30mm wall.stl
G92 E0
G1 F360 X185 Y345 E12.7324
G1 X465 Y345 E369.23947
G92 E0
G1 X465 Y355 E12.7324
G1 X185 Y355 E190.98593
G0 F3000 X185 Y345
;MESH:NONMESH
G0 F600 X185 Y345 Z760
G0 F3000 X185.07 Y345.07
G0 X185.07 Y354.93
G0 X185 Y355
;TIME_ELAPSED:3680.035528
;LAYER:37
;TYPE:WALL-OUTER
;MESH:30mm wall.stl
G92 E0
G1 F360 X185 Y345 E12.7324
G1 X465 Y345 E369.23947
G92 E0
G1 X465 Y355 E12.7324
G1 X185 Y355 E190.98593
G0 F3000 X185 Y345
;MESH:NONMESH
G0 F600 X185 Y345 Z780
G0 F3000 X185.07 Y345.07
G0 X185.07 Y354.93
G0 X185 Y355
;TIME_ELAPSED:3779.207977
;LAYER:38
;TYPE:WALL-OUTER
;MESH:30mm wall.stl
G92 E0
G1 F360 X185 Y345 E12.7324
G1 X465 Y345 E369.23947
G92 E0
G1 X465 Y355 E12.7324
G1 X185 Y355 E190.98593
G0 F3000 X185 Y345
;MESH:NONMESH
G0 F600 X185 Y345 Z800
G0 F3000 X185.07 Y345.07
G0 X185.07 Y354.93
G0 X185 Y355
;TIME_ELAPSED:3878.380426
;LAYER:39
;TYPE:WALL-OUTER
;MESH:30mm wall.stl
G92 E0
G1 F360 X185 Y345 E12.7324
G1 X465 Y345 E369.23947
G92 E0
G1 X465 Y355 E12.7324
G1 X185 Y355 E190.98593
G0 F3000 X185 Y345
;MESH:NONMESH
G0 F600 X185 Y345 Z820
G0 F3000 X185.07 Y345.07
G0 X185.07 Y354.93
G0 X185 Y355
;TIME_ELAPSED:3977.552875
;LAYER:40
;TYPE:WALL-OUTER
;MESH:30mm wall.stl
G92 E0
G1 F360 X185 Y345 E12.7324
G1 X465 Y345 E369.23947
G92 E0
G1 X465 Y355 E12.7324
G1 X185 Y355 E190.98593
G0 F3000 X185 Y345
;MESH:NONMESH
G0 F600 X185 Y345 Z840
G0 F3000 X185.07 Y345.07
G0 X185.07 Y354.93
G0 X185 Y355
;TIME_ELAPSED:4076.725324
;LAYER:41
;TYPE:WALL-OUTER
;MESH:30mm wall.stl
G92 E0
G1 F360 X185 Y345 E12.7324
G1 X465 Y345 E369.23947
G92 E0
G1 X465 Y355 E12.7324
G1 X185 Y355 E190.98593
G0 F3000 X185 Y345
;MESH:NONMESH
G0 F600 X185 Y345 Z860
G0 F3000 X185.07 Y345.07
G0 X185.07 Y354.93
G0 X185 Y355
;TIME_ELAPSED:4175.897773
;LAYER:42
;TYPE:WALL-OUTER
;MESH:30mm wall.stl
G92 E0
G1 F360 X185 Y345 E12.7324
G1 X465 Y345 E369.23947
G92 E0
G1 X465 Y355 E12.7324
G1 X185 Y355 E190.98593
G0 F3000 X185 Y345
;TIME_ELAPSED:4272.778585
M104 S0
M140 S0
;Retract the filament
G92 E1
G1 E-1 F300
G28 X0 Y0
M84
M82 ;absolute extrusion mode
M104 S0
;End of Gcode
;SETTING_3 {"extruder_quality": ["[general]\\nversion = 4\\nname = ASIGARU MODE1
;SETTING_3 \\ndefinition = deltabot\\n\\n[metadata]\\nposition = 0\\nquality_typ
;SETTING_3 e = extra coarse\\nsetting_version = 11\\ntype = quality_changes\\nin
;SETTING_3 tent_category = default\\n\\n[values]\\nbottom_thickness = 20\\ncool_
;SETTING_3 fan_enabled = False\\ninfill_sparse_density = 100\\nline_width = 20\\
;SETTING_3 nmaterial_initial_print_temperature = 210\\nmaterial_print_temperatur
;SETTING_3 e = 210\\nretraction_amount = 0\\nretraction_enable = True\\nretracti
;SETTING_3 on_hop = 20\\nretraction_hop_enabled = True\\nretraction_hop_only_whe
;SETTING_3 n_collides = True\\nretraction_min_travel = 0\\nretraction_speed = 4\
;SETTING_3 \nspeed_layer_0 = =speed_print * 30 / 60\\nspeed_print = 6\\nspeed_to
;SETTING_3 pbottom = 6\\nspeed_travel = 50\\nspeed_wall = 6\\nspeed_wall_x = 6\\
;SETTING_3 ntop_layers = 2\\ntop_thickness = 20\\ntravel_avoid_distance = 20\\nt
;SETTING_3 ravel_avoid_supports = True\\nwall_thickness = 20\\n\\n"], "global_qu
;SETTING_3 ality": "[general]\\nversion = 4\\nname = ASIGARU MODE1\\ndefinition 
;SETTING_3 = deltabot\\n\\n[metadata]\\nquality_type = extra coarse\\nsetting_ve
;SETTING_3 rsion = 11\\ntype = quality_changes\\n\\n[values]\\nadhesion_type = n
;SETTING_3 one\\nlayer_height = 20\\nlayer_height_0 = 20\\nspeed_slowdown_layers
;SETTING_3  = 0\\n\\n"}
